img/about-me/snippet/Star.svg

<svg width="19" height="19" viewBox="0 0 19 19" fill="none" xmlns="http://www.w3.org/2000/svg">
<g clip-path="url(#clip0_64_1672)">
<path d="M9.06024 14.5627L3.77049 17.5237L4.95174 11.5777L0.500488 7.46168L6.52074 6.74768L9.06024 1.24268L11.5997 6.74768L17.62 7.46168L13.1687 11.5777L14.35 17.5237L9.06024 14.5627Z" fill="#607B96"/>
</g>
<defs>
<clipPath id="clip0_64_1672">
<rect width="18" height="18" fill="white" transform="translate(0.0600586 0.867676)"/>
</clipPath>
</defs>
</svg>

<svg width="19" height="19" fill="none" xmlns="http://www.w3.org/2000/svg"><g clip-path="url(#clip0_64_1672)"><path d="M9.06 14.563l-5.29 2.96 1.182-5.945L.5 7.462l6.02-.714 2.54-5.505 2.54 5.505 6.02.714-4.451 4.116 1.181 5.946-5.29-2.961z" fill="#607B96"/></g><defs><clipPath id="clip0_64_1672"><path fill="#fff" transform="translate(.06 .868)" d="M0 0h18v18H0z"/></clipPath></defs></svg>
